X: 1043
T:The Kilfenora (A21)
N: page A21
N: heptatonic
R:Jig
O:Ireland
M:6/8
K:D
"D"BA2D FED|A2D FED|A2DFED|"A"dce dcB|"D"A2D FED|
A2D FED|"Em"E^DE =cBF|G3G2||G|"D"F2d dAF|ABA AFD|
F2d dAF|A3 A2G|F2d dAF|ABA AGF|"Em"E^DE "D"=cAF|
"Em"G3G2||g|"D"f2d dcd|f2d dcd|f2ddcd|a^ga ba=g|
f2d dcd|f2d dcd|"Em"ged cef|g3g2||g|"D"fed faf|
"G"gag "D"faf|fed faf|"A"a^ga ba=g|"D"fed faf|"G"gag faf|
ged "Em"cef|g3 g2|g|"D"fed edc|dfd "F#m"AFA|"D"DFA dAF|
"A"A3 AB=c|"D"B3 =c3|"Bm"BdB AFD|"Em"E^DE =cAF|G3 G2||
